!!!OTL: Sanba diao
!!!ARE: Asia, China,ÿAnhui, huaiyuan
!! III, 589
!!!SCT: C1615
!!!YEM: Copyright 1995, estate of Helmut Schaffrath.
**kern
*ICvox
*Ivox
!! Mixed meters:  2/4; 3/4
*M2/4
*k[]
*C:
{8e
8c
4d
=1
8e
8e
4d
=2
8e
8e
8d
8c
=3
8A
8c
4d}
=4
{8d
8c
4d
=5
8e
8c
4d
=6
8e
8c
8d
8d
=7
*M3/4
4d
8c
8A
4G}
=8
*M2/4
{8c
8A
8G
8A
=9
4G
4E
=10
8d
8c
4d
=11
8d
4d
8c
=12
4c
8c
8A
=13
8A
8c
8E
8A
=14
2G}
=15
{8e
8e
4d
=16
8e
8e
4d
=17
*M3/4
8e
8e
8d
8c
4c}
=18
*M2/4
{8c
8c
8A
8c
=19
8E
8A
8G
8G
=20
8c
8A
8G
8G
=21
8c
8A
4G
=22
2E}
=23
{8d
8d
4d
=24
8A
8d
4d
=25
8d
8d
8d
8c
=26
2c}
=27
{8e
4c
8d
=28
8A
8c
4d
=29
8d
8B
8A
8B
=30
2A}
=31
{8d
8c
8d
8d
=32
8A
4c
8A
=33
8A
8E
8G
8A
=34
2G}
==
!!!AGN: Wuge, Huagudeng
!!!AMT: irregular
!!!AIN: vox
!!!EED: Helmut Schaffrath
!!!EEV: 1.0
*-
